X:1
T:Dippermouth Blues
T:Dippermouth Blues
T:King Oliver/Louis Armstrong
C:King Oliver/Louis Armstrong
%%score 1 2 3
L:1/8
M:4/4
K:Bb
V:1 treble nm="Flute" snm="Fl."
V:2 treble transpose=-2 nm="B♭ Clarinet" snm="B♭ Cl."
V:3 treble transpose=-2 nm="B♭ Clarinet" snm="B♭ Cl."
V:1
!mf!"^Swing" f4- fd_c_A | d_c_AF cAFD | F2 z2 G2 z2 | A2 z2 z F GF | dfBd fBdf | g2 g^f gBcB | %6
 d2 z2 fg_dd | f2 fd gfdB | e4 g^fge | b(3c'/b/c'/ bg (3g_gf eB | d2 z2 fg_dd | fdf^f gfd_d | %12
 c4 g^fgc | f4 fec_d | dfdf ecAc | B6 z2 |!f! dfBd fBdf | g2 g^f gBcB | d2 z2 fg_dd | f2 fd gfdB | %20
 e4 g^fge | b(3c'/b/c'/ bg (3g_gf eB | d2 z2 fg_d=d | fdf^f g=fd_d | c4 g^fgc | e4 fec_d | %26
 dfd(f e)cAc | B2 z2 z2!fff! b2 | b6 f_a- | a8 | f6 z _d' | d'bc'a b_afd | e8 | b6 g_d | %34
 d2 Bf- f4 | gdgd =BGBd | c6 fg | ac'af ecAc | BBdB ecAc | B6 z2 | B3 c dfg^f | g=fdB (3_dcB Gc | %42
 B6 z2 | c'8 | bc'bf gefB | eGBe g^fgB | d4 z2 f^f | gfdc =Bgfd | c4 z d2 c | dAcF Acdc | %50
 dFBd ecAc | B6 z2 |!f! dfBd fBdf | g2 g^f gBcB | d2 z2 fg_dd | f2 fd gfdB | e4 g^fge | %57
 b(3c'/b/c'/ bg (3g_gf eB | d2 z2 fg_d=d | fdf^f g=fd_d | c4 g^fgc | e4 fec_d | dfd(f e)cAc | %63
 B6 z2 |!p! dfBd fBdf | g2 g^f gBcB | d2 z2 fg_dd | f2 fd gfdB | e4 g^fge | b2 bg (3g_gf eB | %70
 d2 z2 fg_d=d | fdf^f g=fd_d | c4 g^fgc | e4 fec_d | dfd(f e)cAc | B6 z2 |!f! dfBd fBdf | %77
 g2 g^f gBcB | d2 z2 fg_dd | f2 fd gfdB | e4 g^fge | b2 bg (3g_gf eB | d2 z2 fg_d=d | %83
 fdf^f g=fd_d | c4 g^fgc | e4 fec_d | dfdf ecAc | B6 z2 | dfBd fBdf | g2 g^f gBcB | d2 z2 fg_dd | %91
 f2 fd gfdB | e4 g^fge | b2 bg (3g_gf eB | d2 z2 fg_d=d | fdf^f g=fd_d | c4 g^fgc | e4 fec_d | %98
!f! d2 d z z4 | z8 |!f! dfBd fBdf | g2 g^f gBcB | d2 z2 fg_dd | f2 fd gfdB | e4 g^fge | %105
 b(3c'/b/c'/ bg (3g_gf eB | d2 z2 fg_d=d | fdf^f g=fd_d | c4 g^fgc | e4 fec_d | dfd(f e)cAc | %111
 B2 ec d4 | d'bc'b defd | gfec d2 z2 |] %114
V:2
[K:C]!mf! e4- e_d_BG | _d_BGE BGE_D | =D2 z2 _G2 z2 | D2 z2 z D DD | cGA_E =E G3 | _ecd_A =A c3 | %6
 cGA_E =E G2 A | _BGAG- Gcdc | _ecd_A =A c3 | _ec d2 c4 | cGA_E =E G3 | cGAG- G4 | _BB AA G G3 | %13
 z _e=e_e d2 GA | c4 g_e=ec- | c4 G4 |!f! cGA_E =E G3 | _ecd_A =A c3 | cGA_E =E G2 A | %19
 _BGAG- Gcdc | ecd_A =A c3 | _ec d2 c4 | cGA_E =E G3 | cGAG- G4 | _BB AA G G3 | z _e=e_e d2 GA | %26
 c4 g_e=ec | c2 G G- G G A2 |!pp! G2 G2 G2 z2 | ^F2 F2 F2 z2 | G2 G2 G2 z2 | G2 G2 G2 z2 | %32
 A2 A2 A2 z2 | _A2 A2 A2 z2 | G2 G2 G2 z2 | A2 A2 A2 z2 | A2 A2 A2 z2 | G2 G2 G2 z2 | %38
 G2 G2 G2!mf! GA |!>(! G!>)!GAG AGcE |!pp! G2 G2 G2 z2 | ^F2 F2 F2 z2 | G2 G2 G2 z2 | G2 G2 G2 z2 | %44
 A2 A2 A2 z2 | _A2 A2 A2 z2 | G2 G2 G2 z2 | A2 A2 A2 z2 | A2 A2 A2 z2 | G2 G2 G2 z2 | %50
 G2 G2 G2!mf! GA |!<(! G2!<)! GG- GGAG |!f!"^Lead" cGA_E =E G3 | _ecd_A =A c3 | cGA_E =E G2 A | %55
 BGAG- Gcdc | _ecd_A =A c3 | F4 D2 _E2 | =E4 C4 | A,2 z2 G,2 z C | G,4 D4 | E2 D2 B,2 G,2 | %62
 E,2 G,G,- G,A, B,2 | z2 G2 z!fff! e2 e | e6- e c- | c6 ec | e6- e c- | c6 z e | _e2 d_e d4 | %69
 _e2 d2 c c3 | c c3 A G3 | z2 z e- e e3 | e d- d4 z2 | e2 e2 e2 e2 | c6 z2 | z4 z _e =e2 | %76
 g2 c2- c _e =e2 | g2 c2 z _e =e2 | gege g e3 | e2 c2 c2 e2 | _ecdc d c2 _e- | ecdc g _e2 c- | %82
 c2 G2 E4 | z2 _e6 | _e2 e2 d4 | _ecdc e d3 | c6 z2 | z2 g6 | a2 a2 a g3 | aa g2 a g3 | a2 _e3 c3 | %91
 a2 _ee- ecdc | _e2 e2 c4 | z _e2 e- e e2 c | _e2 d2 c4 | z2 e6 | _e2 e2 d4 | g2 _e =e- e3 c- | %98
 c2 c z z4 | z8 |!f! cGA_E =E G3 | _ecd_A A c3 | cGA_E =E G2 A | _BGAG- Gcdc | _ecd_A =A c3 | %105
 _ec d2 c4 | cGA_E =E G3 | cGAG- G4 | _BBAA G G3 | z _e =e_e d2 GA | c4 g_e=ec- | c4 g g2 g | %112
 g_e=e_e =e2 g2 | c2 G2 c2 z2 |] %114
V:3
[K:C]!mf! ^C2 z2 z4 | ^C2 z2 C2 z2 | G,2 z2 D2 z2 | G,2 z2 z4 | E2 C2 G,2 !-(!G,2 | %5
 !-)!A,4 A,2 F,2 | E,6 z2 | E C2 _B, G,2 !-(!E,2 | !-)!F,6 z2 | F4 D2 _E2 | =E4 C4 | %11
 A,2 z2 G,2 z C | G,4 D4 | E2 D2 B,2 G,2 | E,2 G,G,- G,A, B,2 | C4 z2 !-(!D2 | %16
!f! !-)!E2 C2 G,2 G,2 | A,4 A,2 !-(!F,2 | !-)!E,6 z2 | E C2 _B, G,2 E,2 | F,6 z2 | F4 D2 _E2 | %22
 =E4 C4 | C2 z2 G,2 z C | G,4 D4 | E2 D2 B,2 G,2 | E,2 G,G,- G,A, B,2 | C4 z4 |!pp! C2 C2 C2 z2 | %29
 C2 C2 C2 z2 | C2 C2 C2 z2 | _B,2 B,2 B,2 z2 | C2 C2 C2 z2 | B,2 B,2 B,2 z2 | C2 C2 C2 z2 | %35
 ^C2 C2 C2 z2 | =C2 C2 C2 z2 | B,2 B,2 B,2 z2 | C4 D2!mf! B,2 | C2 z2 E2 D2 |!pp! C2 C2 C2 z2 | %41
 C2 C2 C2 z2 | C2 C2 C2 z2 | _B,2 B,2 B,2 z2 | C2 C2 C2 z2 | B,2 B,2 B,2 z2 | C2 C2 C2 z2 | %47
 ^C2 C2 C2 z2 | =C2 C2 C2 z2 | B,2 B,2 B,2 z2 | C4 D2 B,2 | C4 z2 !-(!D2 |!f! !-)!E2 C2 G,2 G,2 | %53
 A,4 A,2 F,2 | E,6 z2 | E C2 _B, G,2 !-(!E,2 | !-)!F,6 z2 | _ec d2 c4 | cGA_E =E G3 | cGAG- G4 | %60
 _BBAA G G3 | z _e=e_e d2 GA | c2 ^FG ^GA^AB | C2 G,2 C2 !-(!D2 |!pp! !-)!E2 C2 G,2 G,2 | %65
 A,4 A,2 !-(!F,2 | !-)!E,6 z2 | E C2 _B, G,2 E,2 | F,6 z2 | F4 D2 _E2 | =E4 C4 | A,2 z2 G,2 z C | %72
 G,4 D4 | E2 D2 B,2 G,2 | E,2 G,G,- G,A, B,2 | C4 z2 !-(!D2 | !-)!E2 C2 G,2 G,2 | A,4 A,2 !-(!F,2 | %78
 !-)!E,6 z2 | E C2 _B, G,2 E,2 | F,6 z2 | F4 D2 _E2 | =E4 C4 | A,2 z2 G,2 z C | G,4 D4 | %85
 E2 D2 B,2 G,2 | E,2 G,G,- G,A, B,2 | C4 z2 !-(!D2 | !-)!E2 C2 G,2 G,2 | A,4 A,2 F,2 | E,6 z2 | %91
 E C2 _B, G,2 !-(!E,2 | !-)!F,6 z2 | F4 D2 _E2 | =E4 C4 | A,2 z2 G,2 z C | G,4 D4 | E2 D2 B,2 G,2 | %98
!f! C2 C z z4 | z4 !-(!D2 ^D2 | !-)!E2 C2 G,2 G,2 | A,4 A,2 !-(!F,2 | !-)!E,6 z2 | %103
 E C2 _B, G,2 E,2 | F,6 z2 | F4 D2 _E2 | =E4 C4 | A,2 z2 G,2 z C | G,4 D4 | E2 D2 B,2 G,2 | %110
 E,2 G,G,- G,A, B,2 | C4!ff! z2 C2 | C4 E2 C2 | C2 C2 C2 z2 |] %114

